X:1
T: Lord Kelly
C:
R:Strathspey
Q: 128
K:Gm
M:4/4
L:1/16
|:B2|D3G B3G d3G B3G|C3F A3f F3G A2GF|DG3 G3B A3c B3d|c3f c2BA BG3 G2B2|
D3G B3G d3G B3G|C3F A3f F3G A2GF|DG3 G3B A3c B3d|c3f c2BA BG3 G2ga|
b3g d3g G3d g3b|a3f c3f F3c f3a|b3g d3g fd3 c3B|A3f dcBA BG3 G2ga|
b3g d3g G3d g3b|a3f c3f F3c f3a|b3g a3^f g3d =f3c|A3f dcBA BG3 G2:|
